X:1
T:Flicky's Theme
T:Flicky's Theme
%%score { 1 | 2 }
L:1/8
Q:1/4=140
M:4/4
K:G
V:1 treble nm="Piano" snm="Pno."
V:2 bass 
V:1
 e/_e/=e/_e/ =e/_e/=e dcBA | AB/-B/ c d2 G2 G- | G z z2 E=FGG | %3
 z z2 z BA"^Transcribed by LBmyBB"G=F | z z2 z =FEDF | z z2 z DE=FG | z z2 z E=FGG | z z2 z ABcd- | %8
 d A2 d2 A2 B | ABcd z z2 G- | G z z2 E=FGG | z z2 z BAG=F | z z2 z =FEDF | z z2 z DE=FG | %14
 z z2 z E=FGG | z z2 z ABcd- | d A2 d2 A2 B | ABcd z G2 G- | G z z2 z4 |] %19
V:2
 [D,F,A,] z z2 z z2 [B,,D,G,]- | [B,,D,G,] z2 z2 z2 C, | [E,G,]C,[E,G,]C, [E,G,]C,[E,G,]C, | %3
 [E,G,]C,[E,G,]C, [E,G,]C,[E,G,]B,, | [D,G,]B,,[D,G,]B,, [D,G,]B,,[D,G,]B,, | %5
 [D,G,]B,,[D,G,]B,, [D,G,]B,,[D,G,]C, | [E,G,]C,[E,G,]C, [E,G,]C,[E,G,]C, | %7
 [E,G,]C,[E,G,]C, [E,G,]C,[E,G,]D, | [F,A,]D,[F,A,]D, [F,A,]D,[F,A,]B,, | %9
 [D,_G,][=G,B,][D,G,][B,,D,] G,,D,[D,_G,]C, | [E,G,]C,[E,G,]C, [E,G,]C,[E,G,]C, | %11
 [E,G,]C,[E,G,]C, [E,G,]C,[E,G,]B,, | [D,G,]B,,[D,G,]B,, [D,G,]B,,[D,G,]B,, | %13
 [D,G,]B,,[D,G,]B,, [D,G,]B,,[D,G,]C, | [E,G,]C,[E,G,]C, [E,G,]C,[E,G,]C, | %15
 [E,G,]C,[E,G,]C, [E,G,]C,[E,G,]D, | [F,A,]D,[F,A,]D, [F,A,]D,[F,A,]B,, | %17
 [D,_G,][=G,B,][D,G,][B,,D,] G,,D,[D,_G,][C,=G,C]- | [C,G,C] z z2 z4 |] %19

